X: 27507
T: Mom's
R: jig
M: 6/8
K: Adorian
|:EAE AGA|BAG A2G|EAE ABc|Bdc BAG|
EAE AGA|BAG Aaf|~g3 gfe|dBG GAB:|
AaA g2A|fed ecA|Aaf g2e|dBG GAB|
AaA g2A|fed eaf|~g3 gfe|dBG GAB||

